svg/file/task_2_line.svg

<?xml version="1.0" encoding="UTF-8"?>
<svg width="24px" height="24px" viewBox="0 0 24 24" version="1.1" xmlns="http://www.w3.org/2000/svg" xmlns:xlink="http://www.w3.org/1999/xlink">
    <title>task_2_line</title>
    <g id="Icon" stroke="none" stroke-width="1" fill="none" fill-rule="evenodd">
        <g id="File" transform="translate(-720.000000, -384.000000)">
            <g id="task_2_line" transform="translate(720.000000, 384.000000)">
                <path d="M24,0 L24,24 L0,24 L0,0 L24,0 Z M12.5935,23.2578 L12.5819,23.2595 L12.5109,23.295 L12.4919,23.2987 L12.4767,23.295 L12.4057,23.2595 C12.3958,23.2564 12.387,23.259 12.3821,23.2649 L12.378,23.2758 L12.3609,23.7031 L12.3659,23.7235 L12.3769,23.7357 L12.4805,23.8097 L12.4953,23.8136 L12.5071,23.8097 L12.6107,23.7357 L12.6233,23.7197 L12.6267,23.7031 L12.6096,23.2758 C12.6076,23.2657 12.601,23.2593 12.5935,23.2578 Z M12.8584,23.1453 L12.8445,23.1473 L12.6598,23.2397 L12.6499,23.2499 L12.6472,23.2611 L12.6651,23.6906 L12.6699,23.7034 L12.6784,23.7105 L12.8793,23.8032 C12.8914,23.8069 12.9022,23.803 12.9078,23.7952 L12.9118,23.7812 L12.8777,23.1665 C12.8753,23.1546 12.8674,23.147 12.8584,23.1453 Z M12.143,23.1473 C12.1332,23.1424 12.1222,23.1453 12.1156,23.1526 L12.1099,23.1665 L12.0758,23.7812 C12.0751,23.7927 12.0828,23.8019 12.0926,23.8046 L12.1083,23.8032 L12.3092,23.7105 L12.3186,23.7024 L12.3225,23.6906 L12.3404,23.2611 L12.3372,23.2485 L12.3278,23.2397 L12.143,23.1473 Z" id="MingCute" fill-rule="nonzero"></path>
                <path d="M12,4 C10.8954,4 10,4.89543 10,6 L14,6 C14,4.89543 13.1046,4 12,4 Z M9.35418,3 C10.0593,2.37764 10.9856,2 12,2 C13.0144,2 13.9407,2.37764 14.6458,3 L18,3 C19.1046,3 20,3.89543 20,5 L20,20 C20,21.1046 19.1046,22 18,22 L6,22 C4.89543,22 4,21.1046 4,20 L4,5 C4,3.89543 4.89543,3 6,3 L9.35418,3 Z M8.12602,5 L6,5 L6,20 L18,20 L18,5 L15.874,5 C15.9562,5.31962 16,5.6547 16,6 L16,7 C16,7.55228 15.5523,8 15,8 L9,8 C8.44772,8 8,7.55228 8,7 L8,6 C8,5.6547 8.04375,5.31962 8.12602,5 Z M8,11 C8,10.4477 8.44772,10 9,10 L15,10 C15.5523,10 16,10.4477 16,11 C16,11.5523 15.5523,12 15,12 L9,12 C8.44772,12 8,11.5523 8,11 Z M8,15 C8,14.4477 8.44772,14 9,14 L12,14 C12.5523,14 13,14.4477 13,15 C13,15.5523 12.5523,16 12,16 L9,16 C8.44772,16 8,15.5523 8,15 Z" id="形状" fill="#09244B"></path>
            </g>
        </g>
    </g>
</svg>

<svg xmlns="http://www.w3.org/2000/svg" width="24" height="24"><g fill="none" fill-rule="evenodd"><path d="M24 0v24H0V0h24ZM12.594 23.258l-.012.002-.071.035-.02.004-.014-.004-.071-.036c-.01-.003-.019 0-.024.006l-.004.01-.017.428.005.02.01.013.104.074.015.004.012-.004.104-.074.012-.016.004-.017-.017-.427c-.002-.01-.009-.017-.016-.018Zm.264-.113-.014.002-.184.093-.01.01-.003.011.018.43.005.012.008.008.201.092c.012.004.023 0 .029-.008l.004-.014-.034-.614c-.003-.012-.01-.02-.02-.022Zm-.715.002a.023.023 0 0 0-.027.006l-.006.014-.034.614c0 .012.007.02.017.024l.015-.002.201-.093.01-.008.003-.011.018-.43-.003-.012-.01-.01-.184-.092Z"/><path fill="#09244B" d="M12 4a2 2 0 0 0-2 2h4a2 2 0 0 0-2-2ZM9.354 3c.705-.622 1.632-1 2.646-1s1.94.378 2.646 1H18a2 2 0 0 1 2 2v15a2 2 0 0 1-2 2H6a2 2 0 0 1-2-2V5a2 2 0 0 1 2-2h3.354ZM8.126 5H6v15h12V5h-2.126c.082.32.126.655.126 1v1a1 1 0 0 1-1 1H9a1 1 0 0 1-1-1V6c0-.345.044-.68.126-1ZM8 11a1 1 0 0 1 1-1h6a1 1 0 1 1 0 2H9a1 1 0 0 1-1-1Zm0 4a1 1 0 0 1 1-1h3a1 1 0 1 1 0 2H9a1 1 0 0 1-1-1Z"/></g></svg>
